X:12
T:Gospel Verse, Easter II
M:6/8
L:1/8
K:F min
V:1 clef=treble
[V:1] FE | FAB cBA | BAG (AB)A | G2E F3 | FFG (FE)F | (AG)F C2 C | GAG F3 ||
w: You be-| lieve in me, Tho-mas be- | cause you have seen - me, | says the Lord. | Bless-ed are they - who | have - not seen me, | but still be-lieve.||

